X: 1357
T: Menteşeli
C: Silleli İbrahim
O: Turkey
F: http://compmusic.upf.edu/node/140
N: ussak--turku--devrihindi--menteseli--konya
N: makam= ussak
N: form= turku
N: usul= devrihindi = 7/4
M: 7/4
L: 1/16
K: C _2/4B   
Q: 1/4=138
%%MIDI tuningsystem comma53
G2 cd BG AA AG dc dG  | c2 c2 B2 AA AG AA AG  | 
w:  ARANAĞME  |   | 
Gz cd BG ef gG fe dG  | c2 c2 B2 AA AG AA AG  | 
w:   |   | 
G2 cd BG AA AG dc dG  | c2 c2 B2 AA AG AA AG  | 
w:  ARANAĞME  |   | 
Gz cd BG ef gG fe dG  | c2 c2 B2 AA AG AA AG  | 
w:   |   | 
{G}c2 c3B dd2B c2 cB  | AB {d}c2 cB BA7  | \
w:  *  Men te *  şe li   |  men *  *  *  te *  şe li    | 
Gz cd BG AA AG dc dB  | 
w:  SAZ  | 
c2 c2 B2 AA AG AA AG  | {G}c2 c3B d2 d2 c2 cB  | \
w:   |  *  Del_ ol *  dum  der  | 
AB c2 cB BA7  | 
w:  de  *  *  dü *  şe li    | 
Gz cd BG AA AG dc dG  | c2 c2 B2 AA AG AA AG  | 
w:  SAZ  |   | 
{d}e4 e2 e2 e4 d2  | ^3/4fg a2 gf ge3 e2 dc  | \
w:  *  Üç  gün_ ol du   |  yâr  *  *  gi *  de li    | 
d2 e4 e3d dc d2  | 
w:  Tü ken mez  *  der  | 
Bc d2 d_7/8e dc2B g^f _3/4ed  | cd cB BA A8  | \
w:  dim  *  *  ya *  lı *  *  nız   |  ya *  *  *  lı *  nız    | 
Gz cd BG AA AG dc dG  | 
w:  SAZ  | 
c2 c2 B2 AA AG AA AG  | {d}e4 e2 e2 e4 d2  | \
w:   |  *  Üç  gün_ ol du   | 
^3/4fg a2 gf ge3 e2 dc  | 
w:  yâr  *  *  gi *  de li    | 
d2 e4 e3d dc d2  | Bc d2 d_7/8e dc2B g^f _3/4ed  | \
w:  Tü ken mez  *  der  |  dim  *  *  ya *  lı *  *  nız   | 
cd cB BA A8  | 
w:  ya *  *  *  lı *  nız    | 
G2 cd BG AA AG dc dG  | c2 c2 B2 AA AG AA AG  | 
w:  ARANAĞME  |   | 
Gz cd BG ef gG fe dG  | c2 c2 B2 AA AG AA AG  | 
w:   |   | 
G2 cd BG AA AG dc dG  | c2 c2 B2 AA AG AA AG  | 
w:  ARANAĞME  |   | 
Gz cd BG ef gG fe dG  | c2 c2 B2 AA AG AA AG  | 
w:   |   | 
{G}c2 c3B dd2B c2 cB  | AB {d}c2 cB BA7  | \
w:  *  Men te *  şe li   |  men *  *  *  te *  şe li    | 
Gz cd BG AA AG dc dB  | 
w:  SAZ  | 
c2 c2 B2 AA AG AA AG  | {G}c2 c3B d2 d2 c2 cB  | \
w:   |  *  Del_ ol *  dum  der  | 
AB c2 cB BA7  | 
w:  de  *  *  dü *  şe li    | 
Gz cd BG AA AG dc dG  | c2 c2 B2 AA AG AA AG  | 
w:  SAZ  |   | 
{d}e4 e2 e2 e4 d2  | ^3/4fg a2 gf ge3 e2 dc  | \
w:  *  Üç  gün_ ol du   |  yâr  *  *  gi *  de li    | 
d2 e4 e3d dc d2  | 
w:  Tü ken mez  *  der  | 
Bc d2 d_7/8e dc2B g^f _3/4ed  | cd cB BA A8  | \
w:  dim  *  *  ya *  lı *  *  nız   |  ya *  *  *  lı *  nız    | 
Gz cd BG AA AG dc dG  | 
w:  SAZ  | 
c2 c2 B2 AA AG AA AG  | {d}e4 e2 e2 e4 d2  | \
w:   |  *  Üç  gün_ ol du   | 
^3/4fg a2 gf ge3 e2 dc  | 
w:  yâr  *  *  gi *  de li    | 
d2 e4 e3d dc d2  | Bc d2 d_7/8e dc2B g^f _3/4ed  | \
w:  Tü ken mez  *  der  |  dim  *  *  ya *  lı *  *  nız   | 
cd cB BA A8  | 
w:  ya *  *  *  lı *  nız    | 
|


